X:1
T:Title
L:1/8
Q:1/4=100
M:4/4
K:F
V:1 treble nm="Grand Piano"
V:1
 F2 F2 A2 A2 | cBAB A2 G2- | GF F2 G2 FF | E2 DE F4 | F2 F2 A2 A2 | cBAB A2 G2- | GF F2 G2 FF | %7
w: ?????~????~???? * * *|||||||
 E2 DE F4 | B4 B2 B2 | BAGF G4 | A4 A2 A2 | AGFE F4 | G4 G2 G2 | G2 c2 c4 | cBAB A2 GG | AGFE F4 |] %16
w: |||||||||

